brandFactory_export/3.Masa/Trebol_3Masa.svg

<?xml version="1.0" encoding="UTF-8"?>
<svg width="24px" height="24px" viewBox="0 0 24 24" version="1.1" xmlns="http://www.w3.org/2000/svg" xmlns:xlink="http://www.w3.org/1999/xlink">
    <title>3.Masa/Trebol_3Masa</title>
    <g id="Symbols" stroke="none" stroke-width="1" fill="none" fill-rule="evenodd">
        <g id="3.Masa/Trebol_3Masa" fill="#5CB615" fill-rule="nonzero">
            <path d="M16.2352941,21.092437 C18.2554622,22.712605 20.5142857,23.6235294 22.4907563,23.6235294 C22.5815126,23.6235294 22.6722689,23.6201681 22.7596639,23.6168067 C22.9512605,23.6067227 23.1327731,23.5462185 23.287395,23.4453782 C23.6369748,23.2134454 23.7243697,22.7596639 23.4823529,22.4268908 C23.2773109,22.1411765 22.8941176,22.0403361 22.5747899,22.1579832 C20.9747899,22.205042 19.0016807,21.4016807 17.2201681,19.9697479 L17.1394958,19.9058824 C16.1378151,19.102521 15.2941176,18.1546218 14.5915966,17.1159664 C14.8504202,17.3411765 15.1092437,17.5394958 15.3747899,17.6941176 C16.4369748,18.3193277 17.492437,18.6386555 18.4268908,18.6386555 C18.9512605,18.6386555 19.4386555,18.5378151 19.8689076,18.3327731 C20.5176471,18.0235294 21.3142857,17.3411765 21.5394958,15.8487395 C22.6857143,14.810084 22.810084,13.794958 22.6991597,13.112605 C22.497479,11.8554622 21.3512605,10.7159664 19.5563025,9.98991597 C18.5411765,9.57647059 17.092437,9.48235294 15.6739496,9.52941176 C16.8638655,8.78655462 17.989916,7.9092437 18.5613445,7.01512605 C19.5865546,5.43193277 19.8285714,3.86890756 19.2302521,2.73277311 C18.9042017,2.11428571 18.1915966,1.35462185 16.6218487,1.1394958 C15.5294118,0.043697479 14.4672269,-0.0739495798 13.7512605,0.0336134454 C12.4336134,0.225210084 11.2403361,1.3210084 10.4773109,3.03193277 C10.0436975,3.99663866 9.94621849,5.37815126 9.99663866,6.73277311 C9.21680672,5.6 8.29579832,4.52436975 7.35798319,3.97983193 C5.69411765,3.00504202 4.05714286,2.7697479 2.86386555,3.34117647 C2.21512605,3.65042017 1.41848739,4.33277311 1.19327731,5.82521008 C0.0470588235,6.86386555 -0.0773109244,7.8789916 0.0336134454,8.56134454 C0.235294118,9.81848739 1.38487395,10.9546218 3.17647059,11.6806723 C4.03361345,12.0302521 5.20672269,12.1546218 6.41008403,12.1546218 C6.62857143,12.1546218 6.84369748,12.1478992 7.06218487,12.1411765 C5.87226891,12.8840336 4.74285714,13.7647059 4.17142857,14.6588235 C3.14621849,16.2420168 2.90420168,17.805042 3.50252101,18.9411765 C3.82857143,19.5596639 4.54453782,20.3193277 6.11092437,20.5310924 C7.00504202,21.4285714 7.8789916,21.6672269 8.56134454,21.6672269 C8.7092437,21.6672269 8.85378151,21.6571429 8.98151261,21.6369748 C10.302521,21.4453782 11.4957983,20.3495798 12.2554622,18.6386555 C12.4739496,18.1546218 12.605042,17.5596639 12.6789916,16.9243697 C13.5495798,18.4806723 14.7260504,19.8789916 16.1579832,21.0252101" id="Path"></path>
        </g>
    </g>
</svg>

<svg width="24" height="24" viewBox="0 0 24 24" xmlns="http://www.w3.org/2000/svg"><path d="M16.235 21.092c2.02 1.62 4.28 2.532 6.256 2.532.09 0 .181-.004.269-.007.191-.01.373-.07.527-.172a.71.71 0 00.195-1.018.791.791 0 00-.907-.269c-1.6.047-3.573-.756-5.355-2.188l-.08-.064a12.607 12.607 0 01-2.548-2.79c.258.225.517.423.783.578 1.062.625 2.117.945 3.052.945.524 0 1.012-.101 1.442-.306.649-.31 1.445-.992 1.67-2.484 1.147-1.039 1.271-2.054 1.16-2.736-.202-1.258-1.348-2.397-3.143-3.123-1.015-.414-2.464-.508-3.882-.46 1.19-.743 2.316-1.62 2.887-2.515 1.026-1.583 1.268-3.146.67-4.282-.327-.619-1.04-1.378-2.61-1.594C15.53.044 14.468-.074 13.752.034c-1.317.191-2.51 1.287-3.274 2.998-.433.965-.53 2.346-.48 3.7C9.217 5.6 8.296 4.525 7.358 3.98c-1.664-.975-3.3-1.21-4.494-.639-.649.31-1.446.992-1.67 2.484C.046 6.864-.078 7.88.033 8.561c.201 1.257 1.35 2.394 3.142 3.12.858.35 2.03.474 3.234.474.219 0 .434-.007.652-.014-1.19.743-2.32 1.624-2.89 2.518-1.026 1.583-1.268 3.146-.67 4.282.327.619 1.043 1.378 2.609 1.59.894.898 1.768 1.136 2.45 1.136.148 0 .293-.01.42-.03 1.322-.192 2.515-1.287 3.274-2.998.219-.484.35-1.08.424-1.715a14.033 14.033 0 003.479 4.101" fill="#5CB615" fill-rule="nonzero"/></svg>
